Newaita-dark/apps/48/cs-applets.svg

<svg height="48" viewBox="0 0 48 48" width="48" xmlns="http://www.w3.org/2000/svg" xmlns:xlink="http://www.w3.org/1999/xlink"><linearGradient id="a" gradientUnits="userSpaceOnUse" x1="23.81478" x2="23.81478" y1="42.0509015" y2="44.03546750005"><stop offset="0" stop-opacity=".27451"/><stop offset="1" stop-opacity="0"/></linearGradient><linearGradient id="b"><stop offset="0" stop-opacity=".313726"/><stop offset=".222222" stop-opacity=".27451"/><stop offset="1" stop-opacity="0"/></linearGradient><radialGradient id="c" cx="450.908936" cy="189.579361" gradientTransform="matrix(.00000026 -.117199 -.210958 -.00000015 80.180537 95.392996)" gradientUnits="userSpaceOnUse" r="21.166656" xlink:href="#b"/><radialGradient id="d" cx="450.908936" cy="189.579361" gradientTransform="matrix(-.00000026 .117199 .210958 .00000015 -32.550992 -11.291221)" gradientUnits="userSpaceOnUse" r="21.166656" xlink:href="#b"/><radialGradient id="e" cx="450.908936" cy="189.579361" gradientTransform="matrix(-.00000026 -.117199 .210958 -.00000015 -32.550992 95.392996)" gradientUnits="userSpaceOnUse" r="21.166656" xlink:href="#b"/><radialGradient id="f" cx="450.908936" cy="189.579361" gradientTransform="matrix(.00000026 .117199 -.210958 .00000015 80.180534 -11.291222)" gradientUnits="userSpaceOnUse" r="21.166656" xlink:href="#b"/><linearGradient id="g" gradientTransform="matrix(.113024 0 0 .326118 -8.78102 50.462022)" gradientUnits="userSpaceOnUse" x1="306.916656" x2="305.954559" y1="-25.791676" y2="-135.329163"><stop offset="0" stop-color="#5c6bc0"/><stop offset="1" stop-color="#7986cb"/></linearGradient><linearGradient id="h"><stop offset="0" stop-color="#b0bec5"/><stop offset="1" stop-color="#cfd8dc"/></linearGradient><linearGradient id="i" gradientUnits="userSpaceOnUse" x1="9.9228285001" x2="9.9228285001" xlink:href="#h" y1="42.0509015" y2="6.3287225"/><linearGradient id="j" gradientUnits="userSpaceOnUse" x1="19.8456515001" x2="19.8456515001" xlink:href="#h" y1="42.0509015" y2="6.3287225"/><linearGradient id="k" gradientUnits="userSpaceOnUse" x1="29.7684735001" x2="29.7684735001" xlink:href="#h" y1="42.0509015" y2="6.3287225"/><linearGradient id="l" gradientUnits="userSpaceOnUse" x1="39.6912955001" x2="39.6912955001" xlink:href="#h" y1="42.0509015" y2="6.3287225"/><path d="m6.945312 42.050781h33.738282v1.984375h-33.738282zm0 0" fill="url(#a)"/><path d="m40.683594 42.050781h3.96875v-1.984375h-3.96875zm0 0" fill="url(#c)"/><path d="m6.945312 42.050781h-3.96875v1.984375h3.96875zm0 0" fill="url(#d)"/><path d="m6.945312 42.050781h-3.96875v-1.984375h3.96875zm0 0" fill="url(#e)"/><path d="m40.683594 42.050781h3.96875v1.984375h-3.96875zm0 0" fill="url(#f)"/><path d="m4.960938 6.328125h37.707031c1.097656 0 1.984375.890625 1.984375 1.984375v31.753906c0 1.097656-.886719 1.984375-1.984375 1.984375h-37.707031c-1.09375 0-1.984376-.886719-1.984376-1.984375v-31.753906c0-1.09375.890626-1.984375 1.984376-1.984375zm0 0" fill="url(#g)"/><path d="m4.960938 42.070312c-1.097657 0-1.984376-.886718-1.984376-1.984374v-.515626c0 1.097657.886719 1.984376 1.984376 1.984376h37.707031c1.101562 0 1.984375-.886719 1.984375-1.984376v.515626c0 1.097656-.882813 1.984374-1.984375 1.984374zm0 0" fill-opacity=".235294"/><path d="m4.960938 6.441406c-1.097657 0-1.984376.886719-1.984376 1.988282v.515624c0-1.101562.886719-1.984374 1.984376-1.984374h37.707031c1.101562 0 1.984375.882812 1.984375 1.984374v-.515624c0-1.101563-.882813-1.988282-1.984375-1.988282zm0 0" fill="#fff" fill-opacity=".392157"/><path d="m4.960938 6.1875c-1.175782 0-2.125.949219-2.125 2.125v31.753906c0 1.175782.949218 2.125 2.125 2.125h37.707031c1.175781 0 2.125-.949218 2.125-2.125v-31.753906c0-1.175781-.949219-2.125-2.125-2.125zm0 .28125h37.707031c1.023437 0 1.84375.820312 1.84375 1.84375v31.753906c0 1.023438-.820313 1.84375-1.84375 1.84375h-37.707031c-1.023438 0-1.84375-.820312-1.84375-1.84375v-31.753906c0-1.023438.820312-1.84375 1.84375-1.84375zm0 0" fill="#212121"/><path d="m6.945312 32.128906h3.96875c1.097657 0 1.984376.886719 1.984376 1.984375v3.96875c0 1.097657-.886719 1.984375-1.984376 1.984375h-3.96875c-1.09375 0-1.984374-.886718-1.984374-1.984375v-3.96875c0-1.097656.890624-1.984375 1.984374-1.984375zm0 0" fill="url(#i)"/><path d="m6.945312 32.128906c-1.097656 0-1.984374.882813-1.984374 1.984375v.742188c0-1.097657.886718-1.984375 1.984374-1.984375h3.96875c1.101563 0 1.984376.886718 1.984376 1.984375v-.742188c0-1.101562-.882813-1.984375-1.984376-1.984375zm0 0" fill="#fff" fill-opacity=".392157"/><path d="m6.945312 40.808594c-1.097656 0-1.984374-.882813-1.984374-1.984375v-.742188c0 1.097657.886718 1.984375 1.984374 1.984375h3.96875c1.101563 0 1.984376-.886718 1.984376-1.984375v.742188c0 1.101562-.882813 1.984375-1.984376 1.984375zm0 0" fill-opacity=".235294"/><path d="m74.076259 127.675609h42.329291c11.707216 0 21.164646 9.457431 21.164646 21.164646v42.329291c0 11.707215-9.45743 21.164646-21.164646 21.164646h-42.329291c-11.665552 0-21.164645-9.457431-21.164645-21.164646v-42.329291c0-11.707215 9.499093-21.164646 21.164645-21.164646zm0 0" fill="none" stroke="#212121" stroke-linecap="round" stroke-linejoin="round" stroke-width="3" transform="matrix(.093759 0 0 .093759 0 20.158175)"/><path d="m16.867188 32.128906h3.972656c1.09375 0 1.984375.886719 1.984375 1.984375v3.96875c0 1.097657-.890625 1.984375-1.984375 1.984375h-3.972656c-1.09375 0-1.984376-.886718-1.984376-1.984375v-3.96875c0-1.097656.890626-1.984375 1.984376-1.984375zm0 0" fill="url(#j)"/><path d="m16.867188 32.128906c-1.097657 0-1.984376.882813-1.984376 1.984375v.742188c0-1.097657.886719-1.984375 1.984376-1.984375h3.972656c1.097656 0 1.984375.886718 1.984375 1.984375v-.742188c0-1.101562-.886719-1.984375-1.984375-1.984375zm0 0" fill="#fff" fill-opacity=".392157"/><path d="m16.867188 40.808594c-1.097657 0-1.984376-.882813-1.984376-1.984375v-.742188c0 1.097657.886719 1.984375 1.984376 1.984375h3.972656c1.097656 0 1.984375-.886718 1.984375-1.984375v.742188c0 1.101562-.886719 1.984375-1.984375 1.984375zm0 0" fill-opacity=".235294"/><path d="m74.066144 127.675609h42.370953c11.665553 0 21.164646 9.457431 21.164646 21.164646v42.329291c0 11.707215-9.499093 21.164646-21.164646 21.164646h-42.370953c-11.665553 0-21.164646-9.457431-21.164646-21.164646v-42.329291c0-11.707215 9.499093-21.164646 21.164646-21.164646zm0 0" fill="none" stroke="#212121" stroke-linecap="round" stroke-linejoin="round" stroke-width="3" transform="matrix(.093759 0 0 .093759 9.922823 20.158175)"/><path d="m26.792969 32.128906h3.96875c1.09375 0 1.984375.886719 1.984375 1.984375v3.96875c0 1.097657-.890625 1.984375-1.984375 1.984375h-3.96875c-1.097657 0-1.984375-.886718-1.984375-1.984375v-3.96875c0-1.097656.886718-1.984375 1.984375-1.984375zm0 0" fill="url(#k)"/><path d="m26.792969 32.128906c-1.101563 0-1.984375.882813-1.984375 1.984375v.742188c0-1.097657.882812-1.984375 1.984375-1.984375h3.96875c1.097656 0 1.984375.886718 1.984375 1.984375v-.742188c0-1.101562-.886719-1.984375-1.984375-1.984375zm0 0" fill="#fff" fill-opacity=".392157"/><path d="m26.792969 40.808594c-1.101563 0-1.984375-.882813-1.984375-1.984375v-.742188c0 1.097657.882812 1.984375 1.984375 1.984375h3.96875c1.097656 0 1.984375-.886718 1.984375-1.984375v.742188c0 1.101562-.886719 1.984375-1.984375 1.984375zm0 0" fill-opacity=".235294"/><path d="m74.097706 127.675609h42.329291c11.665553 0 21.164645 9.457431 21.164645 21.164646v42.329291c0 11.707215-9.499092 21.164646-21.164645 21.164646h-42.329291c-11.707216 0-21.164646-9.457431-21.164646-21.164646v-42.329291c0-11.707215 9.45743-21.164646 21.164646-21.164646zm0 0" fill="none" stroke="#212121" stroke-linecap="round" stroke-linejoin="round" stroke-width="3" transform="matrix(.093759 0 0 .093759 19.845645 20.158175)"/><path d="m36.714844 32.128906h3.96875c1.097656 0 1.984375.886719 1.984375 1.984375v3.96875c0 1.097657-.886719 1.984375-1.984375 1.984375h-3.96875c-1.097656 0-1.984375-.886718-1.984375-1.984375v-3.96875c0-1.097656.886719-1.984375 1.984375-1.984375zm0 0" fill="url(#l)"/><path d="m36.714844 32.128906c-1.101563 0-1.984375.882813-1.984375 1.984375v.742188c0-1.097657.882812-1.984375 1.984375-1.984375h3.96875c1.097656 0 1.984375.886718 1.984375 1.984375v-.742188c0-1.101562-.886719-1.984375-1.984375-1.984375zm0 0" fill="#fff" fill-opacity=".392157"/><path d="m36.714844 40.808594c-1.101563 0-1.984375-.882813-1.984375-1.984375v-.742188c0 1.097657.882812 1.984375 1.984375 1.984375h3.96875c1.097656 0 1.984375-.886718 1.984375-1.984375v.742188c0 1.101562-.886719 1.984375-1.984375 1.984375zm0 0" fill-opacity=".235294"/><path d="m74.087605 127.675609h42.329291c11.707216 0 21.164646 9.457431 21.164646 21.164646v42.329291c0 11.707215-9.45743 21.164646-21.164646 21.164646h-42.329291c-11.707215 0-21.164645-9.457431-21.164645-21.164646v-42.329291c0-11.707215 9.45743-21.164646 21.164645-21.164646zm0 0" fill="none" stroke="#212121" stroke-linecap="round" stroke-linejoin="round" stroke-width="3" transform="matrix(.093759 0 0 .093759 29.768467 20.158175)"/></svg>

<?xml version="1.0" encoding="UTF-8"?>
<svg xmlns="http://www.w3.org/2000/svg" xmlns:xlink="http://www.w3.org/1999/xlink" width="48px" height="48px" viewBox="0 0 48 48" version="1.1">
<defs>
<linearGradient id="linear0" gradientUnits="userSpaceOnUse" x1="254" y1="233.5" x2="254" y2="254.666672" gradientTransform="matrix(0.093759,0,0,0.093759,-0.00000572259,20.158175)">
<stop offset="0" style="stop-color:rgb(0%,0%,0%);stop-opacity:0.27451;"/>
<stop offset="1" style="stop-color:rgb(0%,0%,0%);stop-opacity:0;"/>
</linearGradient>
<radialGradient id="radial0" gradientUnits="userSpaceOnUse" cx="450.908936" cy="189.579361" fx="450.908936" fy="189.579361" r="21.166656" gradientTransform="matrix(0.000000261256,-0.117199,-0.210958,-0.000000152308,80.180537,95.392996)">
<stop offset="0" style="stop-color:rgb(0%,0%,0%);stop-opacity:0.313726;"/>
<stop offset="0.222222" style="stop-color:rgb(0%,0%,0%);stop-opacity:0.27451;"/>
<stop offset="1" style="stop-color:rgb(0%,0%,0%);stop-opacity:0;"/>
</radialGradient>
<radialGradient id="radial1" gradientUnits="userSpaceOnUse" cx="450.908936" cy="189.579361" fx="450.908936" fy="189.579361" r="21.166656" gradientTransform="matrix(-0.000000261256,0.117199,0.210958,0.000000152308,-32.550992,-11.291221)">
<stop offset="0" style="stop-color:rgb(0%,0%,0%);stop-opacity:0.313726;"/>
<stop offset="0.222222" style="stop-color:rgb(0%,0%,0%);stop-opacity:0.27451;"/>
<stop offset="1" style="stop-color:rgb(0%,0%,0%);stop-opacity:0;"/>
</radialGradient>
<radialGradient id="radial2" gradientUnits="userSpaceOnUse" cx="450.908936" cy="189.579361" fx="450.908936" fy="189.579361" r="21.166656" gradientTransform="matrix(-0.000000261256,-0.117199,0.210958,-0.000000152308,-32.550992,95.392996)">
<stop offset="0" style="stop-color:rgb(0%,0%,0%);stop-opacity:0.313726;"/>
<stop offset="0.222222" style="stop-color:rgb(0%,0%,0%);stop-opacity:0.27451;"/>
<stop offset="1" style="stop-color:rgb(0%,0%,0%);stop-opacity:0;"/>
</radialGradient>
<radialGradient id="radial3" gradientUnits="userSpaceOnUse" cx="450.908936" cy="189.579361" fx="450.908936" fy="189.579361" r="21.166656" gradientTransform="matrix(0.000000261256,0.117199,-0.210958,0.000000152308,80.180534,-11.291222)">
<stop offset="0" style="stop-color:rgb(0%,0%,0%);stop-opacity:0.313726;"/>
<stop offset="0.222222" style="stop-color:rgb(0%,0%,0%);stop-opacity:0.27451;"/>
<stop offset="1" style="stop-color:rgb(0%,0%,0%);stop-opacity:0;"/>
</radialGradient>
<linearGradient id="linear1" gradientUnits="userSpaceOnUse" x1="306.916656" y1="-25.791676" x2="305.954559" y2="-135.329163" gradientTransform="matrix(0.113024,0,0,0.326118,-8.78102,50.462022)">
<stop offset="0" style="stop-color:rgb(36.078432%,41.960785%,75.294119%);stop-opacity:1;"/>
<stop offset="1" style="stop-color:rgb(47.450981%,52.549022%,79.607844%);stop-opacity:1;"/>
</linearGradient>
<linearGradient id="linear2" gradientUnits="userSpaceOnUse" x1="105.833344" y1="233.5" x2="105.833344" y2="-147.5" gradientTransform="matrix(0.093759,0,0,0.093759,0,20.158175)">
<stop offset="0" style="stop-color:rgb(69.01961%,74.509805%,77.254903%);stop-opacity:1;"/>
<stop offset="1" style="stop-color:rgb(81.176472%,84.705883%,86.274511%);stop-opacity:1;"/>
</linearGradient>
<linearGradient id="linear3" gradientUnits="userSpaceOnUse" x1="105.833344" y1="233.5" x2="105.833344" y2="-147.5" gradientTransform="matrix(0.093759,0,0,0.093759,9.922823,20.158175)">
<stop offset="0" style="stop-color:rgb(69.01961%,74.509805%,77.254903%);stop-opacity:1;"/>
<stop offset="1" style="stop-color:rgb(81.176472%,84.705883%,86.274511%);stop-opacity:1;"/>
</linearGradient>
<linearGradient id="linear4" gradientUnits="userSpaceOnUse" x1="105.833344" y1="233.5" x2="105.833344" y2="-147.5" gradientTransform="matrix(0.093759,0,0,0.093759,19.845645,20.158175)">
<stop offset="0" style="stop-color:rgb(69.01961%,74.509805%,77.254903%);stop-opacity:1;"/>
<stop offset="1" style="stop-color:rgb(81.176472%,84.705883%,86.274511%);stop-opacity:1;"/>
</linearGradient>
<linearGradient id="linear5" gradientUnits="userSpaceOnUse" x1="105.833344" y1="233.5" x2="105.833344" y2="-147.5" gradientTransform="matrix(0.093759,0,0,0.093759,29.768467,20.158175)">
<stop offset="0" style="stop-color:rgb(69.01961%,74.509805%,77.254903%);stop-opacity:1;"/>
<stop offset="1" style="stop-color:rgb(81.176472%,84.705883%,86.274511%);stop-opacity:1;"/>
</linearGradient>
</defs>
<g id="surface1">
<path style=" stroke:none;fill-rule:nonzero;fill:url(#linear0);" d="M 6.945312 42.050781 L 40.683594 42.050781 L 40.683594 44.035156 L 6.945312 44.035156 Z M 6.945312 42.050781 "/>
<path style=" stroke:none;fill-rule:nonzero;fill:url(#radial0);" d="M 40.683594 42.050781 L 44.652344 42.050781 L 44.652344 40.066406 L 40.683594 40.066406 Z M 40.683594 42.050781 "/>
<path style=" stroke:none;fill-rule:nonzero;fill:url(#radial1);" d="M 6.945312 42.050781 L 2.976562 42.050781 L 2.976562 44.035156 L 6.945312 44.035156 Z M 6.945312 42.050781 "/>
<path style=" stroke:none;fill-rule:nonzero;fill:url(#radial2);" d="M 6.945312 42.050781 L 2.976562 42.050781 L 2.976562 40.066406 L 6.945312 40.066406 Z M 6.945312 42.050781 "/>
<path style=" stroke:none;fill-rule:nonzero;fill:url(#radial3);" d="M 40.683594 42.050781 L 44.652344 42.050781 L 44.652344 44.035156 L 40.683594 44.035156 Z M 40.683594 42.050781 "/>
<path style=" stroke:none;fill-rule:nonzero;fill:url(#linear1);" d="M 4.960938 6.328125 L 42.667969 6.328125 C 43.765625 6.328125 44.652344 7.21875 44.652344 8.3125 L 44.652344 40.066406 C 44.652344 41.164062 43.765625 42.050781 42.667969 42.050781 L 4.960938 42.050781 C 3.867188 42.050781 2.976562 41.164062 2.976562 40.066406 L 2.976562 8.3125 C 2.976562 7.21875 3.867188 6.328125 4.960938 6.328125 Z M 4.960938 6.328125 "/>
<path style=" stroke:none;fill-rule:nonzero;fill:rgb(0%,0%,0%);fill-opacity:0.235294;" d="M 4.960938 42.070312 C 3.863281 42.070312 2.976562 41.183594 2.976562 40.085938 L 2.976562 39.570312 C 2.976562 40.667969 3.863281 41.554688 4.960938 41.554688 L 42.667969 41.554688 C 43.769531 41.554688 44.652344 40.667969 44.652344 39.570312 L 44.652344 40.085938 C 44.652344 41.183594 43.769531 42.070312 42.667969 42.070312 Z M 4.960938 42.070312 "/>
<path style=" stroke:none;fill-rule:nonzero;fill:rgb(100%,100%,100%);fill-opacity:0.392157;" d="M 4.960938 6.441406 C 3.863281 6.441406 2.976562 7.328125 2.976562 8.429688 L 2.976562 8.945312 C 2.976562 7.84375 3.863281 6.960938 4.960938 6.960938 L 42.667969 6.960938 C 43.769531 6.960938 44.652344 7.84375 44.652344 8.945312 L 44.652344 8.429688 C 44.652344 7.328125 43.769531 6.441406 42.667969 6.441406 Z M 4.960938 6.441406 "/>
<path style=" stroke:none;fill-rule:nonzero;fill:rgb(12.941177%,12.941177%,12.941177%);fill-opacity:1;" d="M 4.960938 6.1875 C 3.785156 6.1875 2.835938 7.136719 2.835938 8.3125 L 2.835938 40.066406 C 2.835938 41.242188 3.785156 42.191406 4.960938 42.191406 L 42.667969 42.191406 C 43.84375 42.191406 44.792969 41.242188 44.792969 40.066406 L 44.792969 8.3125 C 44.792969 7.136719 43.84375 6.1875 42.667969 6.1875 Z M 4.960938 6.46875 L 42.667969 6.46875 C 43.691406 6.46875 44.511719 7.289062 44.511719 8.3125 L 44.511719 40.066406 C 44.511719 41.089844 43.691406 41.910156 42.667969 41.910156 L 4.960938 41.910156 C 3.9375 41.910156 3.117188 41.089844 3.117188 40.066406 L 3.117188 8.3125 C 3.117188 7.289062 3.9375 6.46875 4.960938 6.46875 Z M 4.960938 6.46875 "/>
<path style=" stroke:none;fill-rule:nonzero;fill:url(#linear2);" d="M 6.945312 32.128906 L 10.914062 32.128906 C 12.011719 32.128906 12.898438 33.015625 12.898438 34.113281 L 12.898438 38.082031 C 12.898438 39.179688 12.011719 40.066406 10.914062 40.066406 L 6.945312 40.066406 C 5.851562 40.066406 4.960938 39.179688 4.960938 38.082031 L 4.960938 34.113281 C 4.960938 33.015625 5.851562 32.128906 6.945312 32.128906 Z M 6.945312 32.128906 "/>
<path style=" stroke:none;fill-rule:nonzero;fill:rgb(100%,100%,100%);fill-opacity:0.392157;" d="M 6.945312 32.128906 C 5.847656 32.128906 4.960938 33.011719 4.960938 34.113281 L 4.960938 34.855469 C 4.960938 33.757812 5.847656 32.871094 6.945312 32.871094 L 10.914062 32.871094 C 12.015625 32.871094 12.898438 33.757812 12.898438 34.855469 L 12.898438 34.113281 C 12.898438 33.011719 12.015625 32.128906 10.914062 32.128906 Z M 6.945312 32.128906 "/>
<path style=" stroke:none;fill-rule:nonzero;fill:rgb(0%,0%,0%);fill-opacity:0.235294;" d="M 6.945312 40.808594 C 5.847656 40.808594 4.960938 39.925781 4.960938 38.824219 L 4.960938 38.082031 C 4.960938 39.179688 5.847656 40.066406 6.945312 40.066406 L 10.914062 40.066406 C 12.015625 40.066406 12.898438 39.179688 12.898438 38.082031 L 12.898438 38.824219 C 12.898438 39.925781 12.015625 40.808594 10.914062 40.808594 Z M 6.945312 40.808594 "/>
<path style="fill:none;stroke-width:3;stroke-linecap:round;stroke-linejoin:round;stroke:rgb(12.941177%,12.941177%,12.941177%);stroke-opacity:1;stroke-miterlimit:4;" d="M 74.076259 127.675609 L 116.40555 127.675609 C 128.112766 127.675609 137.570196 137.13304 137.570196 148.840255 L 137.570196 191.169546 C 137.570196 202.876761 128.112766 212.334192 116.40555 212.334192 L 74.076259 212.334192 C 62.410707 212.334192 52.911614 202.876761 52.911614 191.169546 L 52.911614 148.840255 C 52.911614 137.13304 62.410707 127.675609 74.076259 127.675609 Z M 74.076259 127.675609 " transform="matrix(0.093759,0,0,0.093759,0,20.158175)"/>
<path style=" stroke:none;fill-rule:nonzero;fill:url(#linear3);" d="M 16.867188 32.128906 L 20.839844 32.128906 C 21.933594 32.128906 22.824219 33.015625 22.824219 34.113281 L 22.824219 38.082031 C 22.824219 39.179688 21.933594 40.066406 20.839844 40.066406 L 16.867188 40.066406 C 15.773438 40.066406 14.882812 39.179688 14.882812 38.082031 L 14.882812 34.113281 C 14.882812 33.015625 15.773438 32.128906 16.867188 32.128906 Z M 16.867188 32.128906 "/>
<path style=" stroke:none;fill-rule:nonzero;fill:rgb(100%,100%,100%);fill-opacity:0.392157;" d="M 16.867188 32.128906 C 15.769531 32.128906 14.882812 33.011719 14.882812 34.113281 L 14.882812 34.855469 C 14.882812 33.757812 15.769531 32.871094 16.867188 32.871094 L 20.839844 32.871094 C 21.9375 32.871094 22.824219 33.757812 22.824219 34.855469 L 22.824219 34.113281 C 22.824219 33.011719 21.9375 32.128906 20.839844 32.128906 Z M 16.867188 32.128906 "/>
<path style=" stroke:none;fill-rule:nonzero;fill:rgb(0%,0%,0%);fill-opacity:0.235294;" d="M 16.867188 40.808594 C 15.769531 40.808594 14.882812 39.925781 14.882812 38.824219 L 14.882812 38.082031 C 14.882812 39.179688 15.769531 40.066406 16.867188 40.066406 L 20.839844 40.066406 C 21.9375 40.066406 22.824219 39.179688 22.824219 38.082031 L 22.824219 38.824219 C 22.824219 39.925781 21.9375 40.808594 20.839844 40.808594 Z M 16.867188 40.808594 "/>
<path style="fill:none;stroke-width:3;stroke-linecap:round;stroke-linejoin:round;stroke:rgb(12.941177%,12.941177%,12.941177%);stroke-opacity:1;stroke-miterlimit:4;" d="M 74.066144 127.675609 L 116.437097 127.675609 C 128.10265 127.675609 137.601743 137.13304 137.601743 148.840255 L 137.601743 191.169546 C 137.601743 202.876761 128.10265 212.334192 116.437097 212.334192 L 74.066144 212.334192 C 62.400591 212.334192 52.901498 202.876761 52.901498 191.169546 L 52.901498 148.840255 C 52.901498 137.13304 62.400591 127.675609 74.066144 127.675609 Z M 74.066144 127.675609 " transform="matrix(0.093759,0,0,0.093759,9.922823,20.158175)"/>
<path style=" stroke:none;fill-rule:nonzero;fill:url(#linear4);" d="M 26.792969 32.128906 L 30.761719 32.128906 C 31.855469 32.128906 32.746094 33.015625 32.746094 34.113281 L 32.746094 38.082031 C 32.746094 39.179688 31.855469 40.066406 30.761719 40.066406 L 26.792969 40.066406 C 25.695312 40.066406 24.808594 39.179688 24.808594 38.082031 L 24.808594 34.113281 C 24.808594 33.015625 25.695312 32.128906 26.792969 32.128906 Z M 26.792969 32.128906 "/>
<path style=" stroke:none;fill-rule:nonzero;fill:rgb(100%,100%,100%);fill-opacity:0.392157;" d="M 26.792969 32.128906 C 25.691406 32.128906 24.808594 33.011719 24.808594 34.113281 L 24.808594 34.855469 C 24.808594 33.757812 25.691406 32.871094 26.792969 32.871094 L 30.761719 32.871094 C 31.859375 32.871094 32.746094 33.757812 32.746094 34.855469 L 32.746094 34.113281 C 32.746094 33.011719 31.859375 32.128906 30.761719 32.128906 Z M 26.792969 32.128906 "/>
<path style=" stroke:none;fill-rule:nonzero;fill:rgb(0%,0%,0%);fill-opacity:0.235294;" d="M 26.792969 40.808594 C 25.691406 40.808594 24.808594 39.925781 24.808594 38.824219 L 24.808594 38.082031 C 24.808594 39.179688 25.691406 40.066406 26.792969 40.066406 L 30.761719 40.066406 C 31.859375 40.066406 32.746094 39.179688 32.746094 38.082031 L 32.746094 38.824219 C 32.746094 39.925781 31.859375 40.808594 30.761719 40.808594 Z M 26.792969 40.808594 "/>
<path style="fill:none;stroke-width:3;stroke-linecap:round;stroke-linejoin:round;stroke:rgb(12.941177%,12.941177%,12.941177%);stroke-opacity:1;stroke-miterlimit:4;" d="M 74.097706 127.675609 L 116.426997 127.675609 C 128.09255 127.675609 137.591642 137.13304 137.591642 148.840255 L 137.591642 191.169546 C 137.591642 202.876761 128.09255 212.334192 116.426997 212.334192 L 74.097706 212.334192 C 62.39049 212.334192 52.93306 202.876761 52.93306 191.169546 L 52.93306 148.840255 C 52.93306 137.13304 62.39049 127.675609 74.097706 127.675609 Z M 74.097706 127.675609 " transform="matrix(0.093759,0,0,0.093759,19.845645,20.158175)"/>
<path style=" stroke:none;fill-rule:nonzero;fill:url(#linear5);" d="M 36.714844 32.128906 L 40.683594 32.128906 C 41.78125 32.128906 42.667969 33.015625 42.667969 34.113281 L 42.667969 38.082031 C 42.667969 39.179688 41.78125 40.066406 40.683594 40.066406 L 36.714844 40.066406 C 35.617188 40.066406 34.730469 39.179688 34.730469 38.082031 L 34.730469 34.113281 C 34.730469 33.015625 35.617188 32.128906 36.714844 32.128906 Z M 36.714844 32.128906 "/>
<path style=" stroke:none;fill-rule:nonzero;fill:rgb(100%,100%,100%);fill-opacity:0.392157;" d="M 36.714844 32.128906 C 35.613281 32.128906 34.730469 33.011719 34.730469 34.113281 L 34.730469 34.855469 C 34.730469 33.757812 35.613281 32.871094 36.714844 32.871094 L 40.683594 32.871094 C 41.78125 32.871094 42.667969 33.757812 42.667969 34.855469 L 42.667969 34.113281 C 42.667969 33.011719 41.78125 32.128906 40.683594 32.128906 Z M 36.714844 32.128906 "/>
<path style=" stroke:none;fill-rule:nonzero;fill:rgb(0%,0%,0%);fill-opacity:0.235294;" d="M 36.714844 40.808594 C 35.613281 40.808594 34.730469 39.925781 34.730469 38.824219 L 34.730469 38.082031 C 34.730469 39.179688 35.613281 40.066406 36.714844 40.066406 L 40.683594 40.066406 C 41.78125 40.066406 42.667969 39.179688 42.667969 38.082031 L 42.667969 38.824219 C 42.667969 39.925781 41.78125 40.808594 40.683594 40.808594 Z M 36.714844 40.808594 "/>
<path style="fill:none;stroke-width:3;stroke-linecap:round;stroke-linejoin:round;stroke:rgb(12.941177%,12.941177%,12.941177%);stroke-opacity:1;stroke-miterlimit:4;" d="M 74.087605 127.675609 L 116.416896 127.675609 C 128.124112 127.675609 137.581542 137.13304 137.581542 148.840255 L 137.581542 191.169546 C 137.581542 202.876761 128.124112 212.334192 116.416896 212.334192 L 74.087605 212.334192 C 62.38039 212.334192 52.92296 202.876761 52.92296 191.169546 L 52.92296 148.840255 C 52.92296 137.13304 62.38039 127.675609 74.087605 127.675609 Z M 74.087605 127.675609 " transform="matrix(0.093759,0,0,0.093759,29.768467,20.158175)"/>
</g>
</svg>
